X:20
T:Joe Cashmere's Mazurka
Z:Transcribed into ABC by John Furlonger
M:3/4
R:Mazurka
L:1/8
K:G
D>G|B2G2 B2G2 (3dBG|B2G2 B2G2 (3dBG|A2D2 A2D2 (3cBA|G2G,2 G2G,2 D>G|!
B2G2 B2G2 (3dBG|B2G2 B2G2 (3dBG|A2D2 A2D2 (3AdA|G2 G2 B>d|!
e2 e>f g>e|d2 d2 G>B|d2 d>B A>d|B2 BA GB|!
e2 e>f  g>e|d2 d2 G>B|d>e d>c B>A| G4 D>G||
